!!!!SEGMENT: pl-kozmzk--mzk-m-159--032_walczynski-franciszek--praeludia-organi-op-5-lento.krn
!!!cenid: 18xx:2775
!!!COM: Walczyński, Franciszek
!!!COM-rismid: pe30021989
!!!CDT: ~1852-1937
!!!CNT: Polish
!!!GTL: Praeludia organi op. 5
!!!OTL: 32. Lento
!!!PDT: 1894
!!!AGN: Secular; Prelude
!!!SMS-siglum: PL-KOZmzk
!!!SMS-shelfmark: mzk/m/159
!!!SMS-shelfwork: 032 G
!!!SMS-variant:
!!!SMS-altvar:
!!!NIFC-rismid: 1001118834
!!!URL-scan: https://repozytorium.nifc.pl/islandora/object/pl-kozmzk%3A2265/datastream/PDF/view
!!!ONB-nifc: UWAGA: numeracja plików zgodna z numeracją źrodłową
!!!OMD: 32. Lento.
!!!AIN: 1 empty 1 organ
!!!key:
**kern	**kern	**dynam
*part2	*part1	*part1
*staff2	*staff1	*
*Iempty	*Iorgan	*
*	*I"[Organi]	*
*clefF4	*clefG2	*
*k[b-e-]	*k[b-e-]	*
*B-:	*B-:	*
*M4/4	*M4/4	*
*met(c)	*met(c)	*
=1	=1	=1
*^	*^	*
!	!	!	!	!LO:DY:rj
4r	(1BB-\	(2b-/	2d\	p
(4F/	.	.	.	.
4G/	.	4a/	[2e-\	.
4A/	.	4g/	.	.
=2	=2	=2	=2	=2
2.B-/	2BB-\	1f/)	4e-\]	.
.	.	.	4d\	.
.	2F\)	.	2c\	.
4A/)	.	.	.	.
=3	=3	=3	=3	=3
(4B-/	(2D\	(4f/	4f\	.
4A/	.	4f#X/	8d\L	.
.	.	.	8c\J	.
4G/	4E-\	4g/	4B-\	.
4c/	4C\	4ee-/	4g\	.
=4	=4	=4	=4	=4
4B-/	2.F\)	2.cc/	4g\	.
8A/L	.	.	8f\L	<
8G/J	.	.	8en\J	.
4A/	.	.	4f\	.
4G/)	4E-\	4cc#X/	[4g\	[[
=5	=5	=5	=5	=5
4A/	(2D\	2.dd^/)	4g\]	f
[2.d/	.	.	4f#X\	.
.	4En\	.	4g\	.
.	4F#X\	4cc/	[4a\	.
=6	=6	=6	=6	=6
2d/]	2G\	(2b-/	4a\]	.
.	.	.	4g\	.
4c/	4A\	2a/)	2f\	.
4d/	4B-\)	.	.	.
=7	=7	=7	=7	=7
2.c/	(2c\	(4a/	2.f\	p >
.	.	4a-X/	.	.
.	2C\	2g/	.	.
!	!	!	!LO:SIC:v:s=4en\	!
[4B-/	.	.	4e-\	.
=8	=8	=8	=8	=8
4B-/]	2.F\)	2.f/)	2.f\	]
8A/L	.	.	.	.
8G/J	.	.	.	.
4A/	.	.	.	.
4r	4r	4r	4ryy	.
=9	=9	=9	=9	=9
(8A/L	[1F\	(4.cc/	[1f\	fp
8G#X/	.	.	.	.
8A/	.	.	.	.
8B-/J	.	8b-/	.	.
8c/L	.	8a/L	.	.
8d/	.	8b-/	.	.
8c/	.	8a/	.	.
8B-/J	.	8g/J	.	.
=10	=10	=10	=10	=10
8A/L	1F\]	8f/L	1f\]	.
8B-/	.	8g/	.	.
8c/	.	8a/	.	.
8d/J	.	8b-/J	.	.
8e-/L	.	4cc/	.	.
8dn/	.	.	.	.
8c/	.	4ee-/)	.	.
8A/J)	.	.	.	.
!!LO:LB:g=original
=11	=11	=11	=11	=11
([2B-/	2BB-\	(2dd/	(8f\L	.
.	.	.	8en\	.
.	.	.	8f\	.
.	.	.	8f#X\J)	.
8B-/L]	2E-\	4ee-/	2g\	.
8Bn/	.	.	.	.
8c/	.	4cc/	.	.
8e-/J	.	.	.	.
=12	=12	=12	=12	=12
(8d/L)	1F\	2b-/	4.f\	.
8c#X/	.	.	.	.
8d/	.	.	.	.
8en/J	.	.	8g\	.
!	!	!LO:TX:a:i:t=rit.	!	!
8f/L	.	2a/	8a\L	.
8e-X/	.	.	8g\	.
8d/	.	.	8f\	.
8cn/J)	.	.	8e-\J)	.
=13	=13	=13	=13	=13
!	!LO:TX:b:i:t=Ped.	!	!	!
(4B-/	[1BB-\	(2b-/	2d\	p
4F/	.	.	.	.
4G/	.	4a/	2e-\	.
4A/	.	4g/	.	.
=14	=14	=14	=14	=14
2B-/	2BB-\]	2.f/	4e-\	.
.	.	.	4d\	.
2A/)	2D\	.	2c\	<
.	.	4f#X/	.	[[
=15	=15	=15	=15	=15
4G/	(4E-\	4g/)	4B-\	f
(4c/	4C\	(4ee-/	4g\	.
4Bn/	4D\	4dd/	4f\	.
4c/	4E-\	4cc/	4g\	.
=16	=16	=16	=16	=16
4d/	1F\)	2.b-/	2f\	.
4d-X/	.	.	.	.
2c/)	.	.	2e-\	.
.	.	4a/)	.	.
=17	=17	=17	=17	=17
(4B-/	[1BB-\	[1b-/	2d\	.
4A/	.	.	.	.
2A-X/	.	.	(4f\	p
.	.	.	8g\L	.
.	.	.	8f\J	.
=18	=18	=18	=18	=18
2G/	1BB-\_	1b-/_	4f\	<
.	.	.	4en\	.
2G-X/)	.	.	4e-X\	.
.	.	.	8B-\L	[[
.	.	.	8c\J	.
=19	=19	=19	=19	=19
!	!	!LO:TX:a:i:t=rit.	!	!
(4F/	1BB-\_	1b-/_	(4d\)	>
4Gn/	.	.	4e-\	.
4F/	.	.	4d\	.
4E-/	.	.	4c\	.
=20	=20	=20	=20	=20
1F/)	1BB-\;]	1b-/;]	1d\)	] pp
*v	*v	*	*	*
*	*v	*v	*
==	==	==
*-	*-	*-
!!!system-decoration: {(s1,s2)}
!!!EED: Andrzej Borzym
!!!EST: 2021-08-08
!!!ENC: Katarzyna Serwa
!!!END: 2021-07-26
